!!!!SEGMENT: pl-kk--kk-i-382--014_anonim--nro-5-rorate-caeli.krn
!!!cenid: 18xx:1478
!!!COM: Anonim
!!!COM-rismid: pe30004985
!!!CDT:
!!!CNT:
!!!OPR: Nro 5
!!!OTL: Rorate Caeli
!!!OMV: 001
!!!PDT:
!!!AGN: Sacred
!!!SMS-siglum: PL-Kk
!!!SMS-shelfmark: Kk.I.382
!!!SMS-shelfwork: 005-001 M
!!!SMS-variant:
!!!SMS-altvar:
!!!NIFC-rismid: 1001139097
!!!URL-scan: http://repozytorium.nifc.pl/skany/pl-kk-nut--i-382
!!!ONB-nifc: UWAGA: obsada: S (T 1), A (B 1), T 2, B 2; S (T 1): skan 0013-0014; A (B 1): skan 0158; T 2: skan 0085; B 2: skan 0230
!!!key:
**kern	**text	**dynam	**kern	**text	**kern	**text	**kern	**text
*Ibass	*	*	*Itenor	*	*Ialto	*	*Itenor	*
*I"Basso II	*	*	*I"Tenore II	*	*I"Alto vel Basso I	*	*I"Soprano vel Tenore I.	*
*I'B 2	*	*	*I'T 2	*	*I'A (B 1)	*	*I'S (T 1)	*
*clefF4	*	*	*clefC4	*	*clefC3	*	*clefC1	*
*k[]	*	*	*k[]	*	*k[]	*	*k[]	*
*C:	*	*	*C:	*	*C:	*	*C:	*
*M4/4	*	*	*M4/4	*	*M4/4	*	*M4/4	*
*met(C.)	*	*	*met(C.)	*	*met(C.)	*	*met(C.)	*
=1	=1	=1	=1	=1	=1	=1	=1	=1
*2\right	*	*	*2\right	*	*2\right	*	*2\right	*
!LO:TX:t=P:problem:all\right:global	!	!	!LO:TX:t=P:problem:all\right:global	!	!LO:TX:t=P:problem:all\right:global	!	!LO:TX:t=P:problem:all\right:global	!
!LO:TX:t=P:problem:napis "Nro. 5. Rorate in C." na pięciolinii przed kluczem	!	!	!LO:TX:t=P:problem:napis "Nro 5. Rorate" na pięciolinii przed kluczem	!	!LO:TX:t=P:problem:napis "Nro 5. Rorate." na pięciolinii przed kluczem	!	!LO:TX:t=P:problem:napis "Nro. 5. Rorate." na pięciolinii przed kluczem	!
!LO:TX:a:i:t=LO:TX:a:i:t=Nro. 5. Rorate\nin C.	!	!	!LO:TX:a:i:t=Nro 5. Rorate	!	!LO:TX:a:i:t=Nro 5. Rorate.	!	!LO:TX:a:i:t=Nro. 5. Rorate.	!
2C/	Ro-	.	2e\	Ro-	2g\	Ro-	2cc\	Ro-
4E\	-ra-	.	4c\	-ra-	4g\	-ra-	4cc\	-ra-
4C\	-te	.	4e\	-te	4g\	-te	4cc\	-te
=2	=2	=2	=2	=2	=2	=2	=2	=2
!LO:SIC:v:l:s=cae-	!	!	!LO:SIC:v:l:s=cae-	!	!LO:SIC:v:l:s=cae-	!	!LO:SIC:v:l:s=cae-	!
2G\	ce-	.	2d\	ce-	2g\	ce-	(>2cc\	ce-
4G\	-li	.	4d\	-li	4g\	-li	2b\)	.
4G\	ro-	.	4d\	ro-	4g\	ro-	.	.
=3	=3	=3	=3	=3	=3	=3	=3	=3
2A\	-ra-	.	2c\	-ra-	2f\	-ra-	2cc\	-li
!	!	!	!	!	!	!	!LO:SIC:v:l:s=cae-	!
2B\	-te	.	2G/	-te	2f\	-te	2dd\	ce-
=4	=4	=4	=4	=4	=4	=4	=4	=4
!LO:SIC:v:l:s=cae-	!	!	!LO:SIC:v:l:s=cae-	!	!LO:SIC:v:l:s=cae-	!	!	!
4c\	ce-	.	4G/	ce-	4e\	ce-	(>4ee\	-li
4B\	-li	.	4B\	-li	4g\	-li	4dd\)	.
4.A\	de-	.	4e\	de-	4g\	de-	4cc\	de-
.	.	.	4c\	-su-	4f#X\	-su-	4cc\	-su-
8A\	-su-	.	.	.	.	.	.	.
!	!	!	!	!	!	!	!LO:LB:g=original	!
=5	=5	=5	=5	=5	=5	=5	=5	=5
2G\	-per	.	2d\	-per	2g\	-per	4b\	-per
.	.	.	.	.	.	.	4g\	ro-
4r	.	.	2r	.	4r	.	4a\	-ra-
4C/	et	.	.	.	4e\	et	4a\	-te
!	!	!	!LO:LB:g=original	!	!LO:LB:g=original	!	!	!
=6	=6	=6	=6	=6	=6	=6	=6	=6
4D\	nu-	.	2r	.	4fn\	nu-	4r	.
4D\	-bes	.	.	.	4f\	-bes	4b\	ro-
4r	.	.	4r	.	4r	.	4cc\	-ra-
4E\	et	.	4e\	et	4g\	et	4cc\	-te
!LO:LB:g=original	!	!	!	!	!	!	!	!
=7	=7	=7	=7	=7	=7	=7	=7	=7
!	!	!	!	!	!	!	!LO:SIC:v:l:s=cae-	!
2F\	nu-	.	2c\	nu-	2c\	nu-	2a\	ce-
2D\	-bes	.	2B\	-bes	2d\	-bes	2dd\	-li
=8	=8	=8	=8	=8	=8	=8	=8	=8
!	!	!	!	!	!	!	!LO:SIC:v:l:s=cae-	!
4G\	plu-	.	4B\	plu-	(>4d\	plu-	4dd\	ce-
4E\	-ant	.	4c\	-ant	4e\)	.	4cc\	-li
2D\	iu-	.	(<4A/	iu-	(>2f\	-ant	(>4cc\	de-
.	.	.	4F/)	.	.	.	4b\)	-su-
=9	=9	=9	=9	=9	=9	=9	=9	=9
4C/	-stum	.	4G/	-stum	4e\)	.	4cc\	-per
4c\	et	.	4c\	et	4g\	et	4ee\	et
!	!	!	!	!	!	!	!LO:LB:g=original	!
4B\	nu-	.	4d\	nu-	4g\	nu-	4dd\	nu-
4c\	-bes	.	4c\	-bes	4g\	-bes	4ee\	-bes
=10	=10	=10	=10	=10	=10	=10	=10	=10
4B\	plu-	.	4d\	plu-	4g\	plu-	4dd\	plu-
4c\	-ant	.	4c\	-ant	2g\	-ant	4ee\	-ant
2A\	iu-	.	2c\	iu-	.	.	2cc\	ju-
.	.	.	.	.	4f#X\	ju-	.	.
=11	=11	=11	=11	=11	=11	=11	=11	=11
4G\	-stum	.	4d\	-stum	4g\	-stum	4b\	-stum
4G\	et	.	4B\	et	4g\	et	4dd\	et
4F#X\	nu-	.	4A\	nu-	4a\	nu-	4dd\	nu-
4G\	-bes	.	4B\	-bes	4d\	-bes	4dd\	-bes
!	!	!	!	!	!LO:LB:g=original	!	!	!
=12	=12	=12	=12	=12	=12	=12	=12	=12
4F#X\	plu-	.	4A\	plu-	4f#X\	plu-	4dd\	plu-
4G\	-ant	.	4B\	-ant	4d\	-ant	4dd\	-ant
!	!	!	!LO:LB:g=original	!	!	!	!	!
2E\	iu-	.	2G/	iu-	2e\	iu-	(>4dd\	ju-
!	!	!	!	!	!	!	!LO:TX:i:b:t=V&colon; S&colon;	!
!	!	!	!	!	!	!	!LO:TX:a:t=P:problem:napis na pięciolinii za kreską	!
.	.	.	.	.	.	.	4cc#X\)	.
!LO:LB:g=original	!	!	!	!	!	!	!LO:PB:g=original	!
=13	=13	=13	=13	=13	=13	=13	=13	=13
4D\	-stum	.	4A\	-stum	4f#X\	-stum	4dd\	-stum
4D\	et	.	4A\	et	4f#\	et	4dd\	et
4BB/	nu-	.	4B\	nu-	4g\	nu-	4dd\	nu-
4BB/	-bes	.	4D/	-bes	4g\	-bes	4dd\	-bes
=14	=14	=14	=14	=14	=14	=14	=14	=14
2C/	plu-	.	(>4E/	plu-	(>4c\	nu-	4g\	plu-
.	.	.	4A\)	.	4e\)	.	4cc\	.
2D\	-ant	.	(>4F#X/	-ant	(>4d\	.	4a\	.
.	.	.	4B\)	.	4f#X\)	.	4dd\	.
=15	=15	=15	=15	=15	=15	=15	=15	=15
2E\	nu-	.	(>4G/	nu-	(>4e\	.	4b\	.
.	.	.	4c\)	.	4g\)	.	4ee\	.
2F#X\	-bes	.	(>4A\	-bes	(>4f#X\	-bes	4cc\	.
.	.	.	4d\)	.	4a\)	.	8ff#X\L	.
.	.	.	.	.	.	.	8ee\J	.
=16	=16	=16	=16	=16	=16	=16	=16	=16
4G\	plu-	.	4B\	plu-	4g\	plu-	4dd\	.
4C/	-ant	.	4e\	-ant	4a\	-ant	(>8cc\L	-ant
.	.	.	.	.	.	.	8b\J)	.
2D\	iu-	.	2d\	iu-	2f#X\	iu-	2a\	ju-
=17	=17	=17	=17	=17	=17	=17	=17	=17
4GG/	-stum	.	4d\	-stum	4g\	-stum	4b\	-stum
!LO:TX:a:t=P:problem:oznaczenie dynamiczne na pięciolinii przed nutą	!	!LO:DY:b:t=p.:rj	!	!	!	!	!	!
4G\	a-	p	4G/	a-	4r	.	4g\	a-
4G\	-pe-	.	4G/	-pe-	2r	.	4g\	-pe-
!LO:TX:i:b:t=V&colon; S&colon;	!	!	!	!	!	!	!	!
!LO:TX:a:t=P:problem:napis na pięciolinii za kreską	!	!	!	!	!	!	!	!
4G\	-ri-	.	4G/	-ri-	.	.	4g\	-ri-
!LO:PB:g=original	!	!	!	!	!LO:LB:g=original	!	!LO:LB:g=original	!
=18	=18	=18	=18	=18	=18	=18	=18	=18
2.A\	-a-	.	2.A\	-a-	4r	.	2.a\	-a-
.	.	.	.	.	4d\	a-	.	.
.	.	.	.	.	4d\	-pe-	.	.
4B\	-tur	.	4B\	-tur	4d\	-ri-	4b\	-tur
!	!	!	!LO:LB:g=original	!	!	!	!	!
=19	=19	=19	=19	=19	=19	=19	=19	=19
4c\	ter-	.	4c\	ter-	2e\	-a-	4cc\	ter-
4B\	.	.	4B\	.	.	.	4b\	.
4c\	.	.	4c\	.	(>4e\	-tur	4cc\	.
4A\	.	.	4A\	.	4f#X\)	.	4a\	.
=20	=20	=20	=20	=20	=20	=20	=20	=20
2.B\	.	.	4B\	-ra	(>2.g\	ter-	2.b\	.
.	.	.	4G/	a-	.	.	.	.
.	.	.	4G/	-pe-	.	.	.	.
8c\L	.	.	4G/	-ri-	8a\L	.	8cc\L	.
8B\J	.	.	.	.	8g\J)	.	8b\J	.
=21	=21	=21	=21	=21	=21	=21	=21	=21
4A\	-ra	.	2.A\	-a-	4f#X\	-ra	2a\	-ra
!LO:TX:a:t=P:problem:oznaczenie dynamiczne na pięciolinii przed nutą	!	!LO:DY:b:t=f.:rj	!	!	!	!	!	!
4D\	a-	f	.	.	4f#\	a-	.	.
4D\	-pe-	.	.	.	4f#\	-pe-	2r	.
4D\	-ri-	.	4B\	-tur	4f#\	-ri-	.	.
=22	=22	=22	=22	=22	=22	=22	=22	=22
!	!	!	!	!	!	!	!LO:TX:a:t=1.	!
2.E\	-a-	.	4c\	ter-	2.g\	-a-	1r	.
.	.	.	4B\	.	.	.	.	.
.	.	.	4c\	.	.	.	.	.
4F#X\	-tur	.	4A\	.	4d\	-tur	.	.
=23	=23	=23	=23	=23	=23	=23	=23	=23
2.G\	ter-	.	2.B\	.	2.d\	ter-	4r	.
.	.	.	.	.	.	.	4b\	a-
.	.	.	.	.	.	.	4b\	-pe-
8A\L	.	.	8c\L	.	4e\	.	4cc\	-ri-
8G\J	.	.	8B\J	.	.	.	.	.
=24	=24	=24	=24	=24	=24	=24	=24	=24
2F#X\	.	.	2A\	.	2f#X\	.	4dd\	-a-
.	.	.	.	.	.	.	4dd\	-tur
2G\	.	.	2B\	.	2d\	.	[>2dd\	ter-
!	!	!	!	!	!LO:LB:g=original	!	!LO:LB:g=original	!
=25	=25	=25	=25	=25	=25	=25	=25	=25
1E	.	.	2B\	.	1g	.	(>2dd\]	.
!	!	!	!LO:TX:i:b:t=V&colon; S&colon;	!	!	!	!	!
!	!	!	!LO:TX:a:t=P:problem:napis na pięciolinii za kreską	!	!	!	!	!
.	.	.	2G/	.	.	.	2cc#X\)	.
!LO:LB:g=original	!	!	!LO:PB:g=original	!	!	!	!	!
=26	=26	=26	=26	=26	=26	=26	=26	=26
4D\	-ra	.	4A\	-ra	4f#X\	-ra	4dd\	-ra
4G\	a-	.	4B\	a-	4g\	a-	4dd\	a-
4G\	-pe-	.	4B\	-pe-	4g\	-pe-	4dd\	-pe-
4G\	-ri-	.	4B\	-ri-	4g\	-ri-	4dd\	-ri-
=27	=27	=27	=27	=27	=27	=27	=27	=27
2A\	-a-	.	2c\	-a-	2fn\	-a-	2ccn\	-a-
4A\	-tur	.	4c\	-tur	4f\	-tur	4cc\	-tur
4B\	a-	.	4d\	a-	4f\	a-	4g\	a-
=28	=28	=28	=28	=28	=28	=28	=28	=28
2.c\	-pe-	.	2.e\	-pe-	4e\	-pe-	4g\	-pe-
.	.	.	.	.	4g\	-ri-	4cc\	-ri-
.	.	.	.	.	[>2a\	-a-	4cc\	-a-
8d\L	-ri-	.	(>8f\L	-ri-	.	.	4ee\	-tur
8c\J	.	.	8e\J)	.	.	.	.	.
=29	=29	=29	=29	=29	=29	=29	=29	=29
2.B\	-a-	.	2.d\	-a-	2a\]	.	4ff\	ter-
.	.	.	.	.	.	.	4dd\	.
.	.	.	.	.	2g\	-tur	4b\	.
8c\L	.	.	(>8e\L	-tur	.	.	4g\	.
8B\J	.	.	8d\J)	.	.	.	.	.
=30	=30	=30	=30	=30	=30	=30	=30	=30
2A\	.	.	1c	ter-	(>2g\	ter-	2.a\	.
2D\	-tur	.	.	.	2f#X\)	.	.	.
.	.	.	.	.	.	.	8b\L	.
.	.	.	.	.	.	.	8a\J	.
!	!	!	!	!	!	!	!LO:LB:g=original	!
=31	=31	=31	=31	=31	=31	=31	=31	=31
2G\	ter-	.	2B\	-ra	2g\	-ra	2g\	.
2D\	.	.	2d\	a-	2f#X\	ter-	2a\	.
=32	=32	=32	=32	=32	=32	=32	=32	=32
2GG/	-ra	.	2d\	-pe-	2g\	-ra	2b\	-ra
2G\	et	.	2d\	-ri-	2g\	et	2dd\	et
!	!	!	!	!	!LO:LB:g=original	!	!	!
=33	=33	=33	=33	=33	=33	=33	=33	=33
2.c\	ger-	.	(>2c\	-a-	2g\	ger-	2.ee\	ger-
.	.	.	2e\)	.	2a\	.	.	.
8B\L	.	.	.	.	.	.	8dd\L	.
8A\J	.	.	.	.	.	.	8cc\J	.
!LO:LB:g=original	!	!	!LO:LB:g=original	!	!	!	!	!
=34	=34	=34	=34	=34	=34	=34	=34	=34
2.B\	.	.	(>2B\	-tur	4a\	.	2.dd\	.
.	.	.	.	.	8g\L	.	.	.
.	.	.	.	.	8fn\J	.	.	.
.	.	.	2d\)	.	2g\	.	.	.
8A\L	.	.	.	.	.	.	8cc\L	.
8G\J	.	.	.	.	.	.	8b\J	.
=35	=35	=35	=35	=35	=35	=35	=35	=35
2.A\	.	.	(>2A\	ter-	4g\	.	2.cc\	.
.	.	.	.	.	8f\L	.	.	.
.	.	.	.	.	8e\J	.	.	.
.	.	.	2c\)	.	2f\	.	.	.
8G\L	.	.	.	.	.	.	8b\L	.
8Fn\J	.	.	.	.	.	.	8a\J	.
=36	=36	=36	=36	=36	=36	=36	=36	=36
2.G\	.	.	2G/	-ra	4f\	.	2.b\	.
.	.	.	.	.	8e\L	.	.	.
.	.	.	.	.	8d\J	.	.	.
.	.	.	(>4B\	et	2e\	.	.	.
8F\L	.	.	4c\)	.	.	.	8a\L	.
8E\J	.	.	.	.	.	.	8g\J	.
=37	=37	=37	=37	=37	=37	=37	=37	=37
2.D\	.	.	2c\	ger-	2.f\	.	2a\	.
.	.	.	2B\	-mi-	.	.	2b\	-mi-
4D\	-mi-	.	.	.	4f\	-mi-	.	.
=38	=38	=38	=38	=38	=38	=38	=38	=38
2C/	-net	.	2c\	-net	2e\	-net	2g\	-net
4BB/	sal-	.	4d\	sal-	4g\	sal-	4dd\	sal-
4BB/	-va-	.	4d\	-va-	4g\	-va-	4dd\	-va-
!	!	!	!	!	!	!	!LO:LB:g=original	!
=39	=39	=39	=39	=39	=39	=39	=39	=39
1C	-to-	.	1c	-to-	(>2g\	-to-	1ee	-to-
.	.	.	.	.	2a\)	.	.	.
=40	=40	=40	=40	=40	=40	=40	=40	=40
!	!	!	!	!	!LO:TX:i:b:t=V&colon; S&colon;	!	!	!
!	!	!	!	!	!LO:TX:a:t=P:problem:napis na pięciolinii za kreską	!	!	!
1D	.	.	2c\	.	1f	-rem,	2dd\	.
.	.	.	2B\	.	.	.	2b\	.
!	!	!	!	!	!LO:PB:g=original	!	!	!
=41	=41	=41	=41	=41	=41	=41	=41	=41
[>1E	.	.	2c\	-rem	[>1g	sal-	[>1a	.
.	.	.	[>2c\	sal-	.	.	.	.
=42	=42	=42	=42	=42	=42	=42	=42	=42
1E]	.	.	2c\]	.	(>1g]	.	1a]	.
.	.	.	2c\	-va-	.	.	.	.
!	!	!	!LO:LB:g=original	!	!	!	!	!
=43	=43	=43	=43	=43	=43	=43	=43	=43
[>1D	.	.	(>2c\	-to-	2f#X\)	.	2b\	.
.	.	.	2B\)	.	2g\	-va-	2dd\	.
=44	=44	=44	=44	=44	=44	=44	=44	=44
1D]	.	.	1A	.	(>2g\	-to-	1dd	.
.	.	.	.	.	2f#X\)	.	.	.
=45	=45	=45	=45	=45	=45	=45	=45	=45
!	!	!	!	!	!	!	!LO:N:vis=0	!
1GG	-rem.	.	1B	-rem.	1g	-rem	1dd	-rem
!LO:LB:g=original	!	!	!	!	!	!	!	!
==46	==46	==46	==46	==46	==46	==46	==46	==46
*M3/2	*	*	*M3/2	*	*M3/2	*	*M3/2	*
*	*	*	*	*	*	*	*rscale:1/2	*
!	!	!	!	!	!	!	!LO:TX:t=P:problem:w źródle metrum 3/4 [zapisano zgodnie z pozostałymi głosami; użyto *rscale]	!
2E\	Be-	.	2e\	Be-	2g\	Be-	2b\	Be-
2E\	-ne-	.	2e\	-ne-	2g\	-ne-	2b\	-ne-
2D#X\	-di-	.	2f#X\	-di-	2f#X\	-di-	2dd#X\	-di-
=47	=47	=47	=47	=47	=47	=47	=47	=47
1E	-xi-	.	1e	-xi-	1g	-xi-	(>2b\	-xi-
.	.	.	.	.	.	.	2ccn\)	.
2Dn\	-sti	.	2B\	-sti	2f#X\	-sti	2ddn\	-sti
!	!	!	!	!	!	!	!LO:LB:g=original	!
=48	=48	=48	=48	=48	=48	=48	=48	=48
1C	Do-	.	1B	Do-	1g	Do-	1ee	Do-
2C/	-mi-	.	2A\	-mi-	2e\	-mi-	2ee\	-mi-
!	!	!	!	!	!LO:LB:g=original	!	!	!
=49	=49	=49	=49	=49	=49	=49	=49	=49
2BB/	-ne	.	2B\	-ne	2f#X\	-ne	2dd#X\	-ne
(>2B\	ter-	.	2B\	ter-	1f#	ter-	2r	.
2A\)	.	.	2A\	-ram	.	.	2r	.
=50	=50	=50	=50	=50	=50	=50	=50	=50
2G\	-ram	.	(>2G/	tu-	2g\	-ram	2r	.
2r	.	.	2B\	.	(>2g\	tu-	2ee\	ter-
2r	.	.	2A\)	.	2f#X\)	.	2ddn\	-ram
=51	=51	=51	=51	=51	=51	=51	=51	=51
2r	.	.	1G	-am	2e\	-am	2cc\	ter-
2E\	ter-	.	.	.	2g\	ter-	2cc\	-ram
2D#X\	-ram	.	2r	.	2f#X\	-ram	2b\	tu-
!	!	!	!LO:LB:g=original	!	!	!	!	!
=52	=52	=52	=52	=52	=52	=52	=52	=52
2E\	ter-	.	2r	.	1g	ter-	2b\	-am
2C/	.	.	2e\	ter-	.	.	2cc\	ter-
2AA/	-ram	.	2e\	-ram	(>4a\	-ram	2cc\	-ram
.	.	.	.	.	4g\)	.	.	.
!LO:LB:g=original	!	!	!	!	!	!	!	!
=53	=53	=53	=53	=53	=53	=53	=53	=53
1.BB	tu-	.	1e	tu-	1.f#X	tu-	1.b	tu-
.	.	.	2d#X\	.	.	.	.	.
=54	=54	=54	=54	=54	=54	=54	=54	=54
2E\	-am	.	2e\	-am	2g\	-am	2b\	-am
!	!	!	!	!	!	!	!LO:LB:g=original	!
2G\	a-	.	2dn\	a-	2g\	a-	2b\	a-
2D\	-ver-	.	2d\	-ver-	2f#X\	-ver-	2dd\	-ver-
!	!	!	!	!	!LO:LB:g=original	!	!	!
=55	=55	=55	=55	=55	=55	=55	=55	=55
2E\	-ti-	.	2B\	-ti-	2g\	-ti-	2b\	-ti-
4E\	-sti	.	4B\	-sti	4g\	-sti	4ee\	-sti
4E\	ca-	.	4B\	ca-	4g\	ca-	4ee\	ca-
4BB/	-pti-	.	4d\	-pti-	4g\	-pti-	4dd\	-pti-
4BB/	-vi-	.	4d\	-vi-	4g\	-vi-	4dd\	-vi-
=56	=56	=56	=56	=56	=56	=56	=56	=56
1C	-ta-	.	1e	-ta-	1g	-ta-	1cc	-ta-
2GG/	-tem	.	2d\	-tem	2g\	-tem	2b\	-tem
=57	=57	=57	=57	=57	=57	=57	=57	=57
1.D	Ja-	.	1.d	Ja-	(>1g	Ja-	1.a	Ja-
.	.	.	.	.	2f#X\)	.	.	.
=58	=58	=58	=58	=58	=58	=58	=58	=58
2GG/	-cob	.	2d\	-cob	2g\	-cob	2b\	-cob
2C/	ca-	.	2e\	ca-	2g\	ca-	2cc\	ca-
4BB/	-pti-	.	4d\	-pti-	4g\	-pti-	4dd\	-pti-
4BB/	-vi-	.	4d\	-vi-	4g\	-vi-	4dd\	-vi-
!	!	!	!LO:LB:g=original	!	!	!	!LO:LB:g=original	!
=59	=59	=59	=59	=59	=59	=59	=59	=59
1C	-ta-	.	1e	-ta-	1g	-ta-	1cc	-ta-
2GG/	-tem	.	4d\	-tem	2g\	-tem	2b\	-tem
.	.	.	4e\	.	.	.	.	.
!LO:LB:g=original	!	!	!	!	!	!	!	!
=60	=60	=60	=60	=60	=60	=60	=60	=60
1D	cap-	.	(>1f#X	Ja-	(>1a	Ja-	1.b	Ja-
2E\	.	.	2e\)	.	2g\	.	.	.
!	!	!	!	!	!LO:LB:g=original	!	!	!
=61	=61	=61	=61	=61	=61	=61	=61	=61
!	!	!	!	!	!LO:TX:a:t=P:problem:brak zakończenia łuku	!	!	!
1C	-ti-	.	2e\	-cob	1g)	.	1.a	.
.	.	.	(>2e\	ca-	.	.	.	.
2D\	-vi-	.	2d\)	.	2f#X\	-cob	.	.
=62	=62	=62	=62	=62	=62	=62	=62	=62
1BB	-ta-	.	1d	-pti-	2f#X\	cap-	1.g	.
.	.	.	.	.	2f#\	-ti-	.	.
2C/	.	.	2c\	-vi-	2e\	-vi-	.	.
=63	=63	=63	=63	=63	=63	=63	=63	=63
1AA	.	.	(>2c\	-ta-	1f#X	-ta-	2a\	.
.	.	.	2A\)	.	.	.	2cc\	.
2GG/	-tem	.	2B\	-tem	2g\	-tem	2dd\	.
=64	=64	=64	=64	=64	=64	=64	=64	=64
[>1.D	Ja-	.	1.d	Ja-	(>1f#X	Ja-	1a	.
.	.	.	.	.	2g\	.	2b\	.
=65	=65	=65	=65	=65	=65	=65	=65	=65
1.D]	.	.	1.d	.	1g	.	1.a	.
.	.	.	.	.	2f#X\)	.	.	.
==66	==66	==66	==66	==66	==66	==66	==66	==66
*M4/4	*	*	*M4/4	*	*M4/4	*	*M4/4	*
*met(C.)	*	*	*met(C.)	*	*met(C.)	*	*met(C.)	*
*	*	*	*	*	*	*	*rscale:1	*
!LO:TX:i:a:t=Solo.	!	!	!LO:TX:t=P:problem:oznaczenie metryczne alla breve	!	!	!	!	!
2GG/	-cob	.	2d\	-cob	2g\	-cob	2b\	-cob
!LO:TX:a:t=P:problem:oznaczenie dynamiczne na pięciolinii przed nutą	!	!LO:DY:b:t=p.:rj	!	!	!	!	!	!
(>2G\	glo-	p	(>2G/	glo-	2r	.	(>2g\	glo-
=67	=67	=67	=67	=67	=67	=67	=67	=67
!	!	!	!	!	!LO:TX:b:t=1.	!	!	!
2.B\)	.	.	2.B\)	.	1r	.	2.b\)	.
4c\	-ri-	.	4c\	-ri-	.	.	4cc\	-ri-
!	!	!	!LO:LB:g=original	!	!	!	!LO:LB:g=original	!
=68	=68	=68	=68	=68	=68	=68	=68	=68
2d\	-a	.	2d\	-a	2r	.	2dd\	-a
2d\	glo-	.	(>2d\	glo-	(>2d\	glo-	(>2dd\	glo-
!LO:LB:g=original	!	!	!	!	!LO:LB:g=original	!	!	!
=69	=69	=69	=69	=69	=69	=69	=69	=69
!	!	!	!	!	!LO:TX:a:t=P:problem:brak zakończenia łuku	!	!	!
2.c\	.	.	2.c\)	.	2.e\)	.	2.cc\)	.
4c\	-ri-	.	4c\	-ri-	4f#X\	-ri-	4cc\	-ri-
=70	=70	=70	=70	=70	=70	=70	=70	=70
2B\	-a	.	2B\	-a	2g\	-a	2b\	-a
2B\	glo-	.	(>2G/	glo-	[>2g\	glo-	(>2b\	glo-
=71	=71	=71	=71	=71	=71	=71	=71	=71
2.d\	.	.	2.B\)	.	2g\]	.	2.dd\)	.
.	.	.	.	.	2g\	-ri-	.	.
4e\	-ri-	.	4c\	-ri-	.	.	4ee\	-ri-
=72	=72	=72	=72	=72	=72	=72	=72	=72
2d\	-a	.	2d\	-a	2f#X\	-a	2dd\	-a
!LO:TX:a:t=P:problem:oznaczenie dynamiczne na pięciolinii przed nutą	!	!LO:DY:b:t=f.:rj	!	!	!	!	!	!
2D\	glo-	f	(>2d\	glo-	(>2f#\	glo-	2r	.
=73	=73	=73	=73	=73	=73	=73	=73	=73
!	!	!	!	!	!	!	!LO:TX:b:t=1.	!
2.E\	.	.	2.c\)	.	2.g\)	.	1r	.
4F#X\	-ri-	.	4c\	-ri-	4a\	-ri-	.	.
=74	=74	=74	=74	=74	=74	=74	=74	=74
2G\	-a	.	2B\	-a	2g\	-a	2r	.
2B\	pa-	.	2d\	pa-	2g\	pa-	2dd\	pa-
=75	=75	=75	=75	=75	=75	=75	=75	=75
2c\	-tri	.	2e\	-tri	2g\	-tri	2cc\	-tri
2B\	et	.	2d\	et	2g\	et	2dd\	et
=76	=76	=76	=76	=76	=76	=76	=76	=76
2.A\	fi-	.	2.c\	fi-	2g\	fi-	2.ee\	fi-
.	.	.	.	.	2f#X\	-li-	.	.
4A\	-li-	.	4c\	-li-	.	.	4cc\	-li-
!	!	!	!	!	!LO:LB:g=original	!	!	!
=77	=77	=77	=77	=77	=77	=77	=77	=77
2G\	-o	.	2B\	-o	2g\	-o	2dd\	-o
!	!	!	!LO:LB:g=original	!	!	!	!	!
4E\	et	.	4c#X\	et	4g\	et	4ee\	et
4E\	spi-	.	4c#\	spi-	4g\	spi-	4ee\	spi-
!LO:LB:g=original	!	!	!	!	!	!	!LO:LB:g=original	!
=78	=78	=78	=78	=78	=78	=78	=78	=78
2D\	-ri-	.	2d\	-ri-	2g\	-ri-	2a\	-ri-
4D\	-tu-	.	4d\	-tu-	4f#X\	-tu-	4a\	-tu-
4D\	-i	.	4d\	-i	4f#\	-i	4a\	-i
=79	=79	=79	=79	=79	=79	=79	=79	=79
2A\	san-	.	(>2c#X\	san-	(>2e\	san-	[>1a	san-
2d\	.	.	2d\	.	2f#X\	.	.	.
=80	=80	=80	=80	=80	=80	=80	=80	=80
2A\	.	.	2d\	.	1e)	.	1a]	.
2AA/	.	.	2c#X\)	.	.	.	.	.
=81	=81	=81	=81	=81	=81	=81	=81	=81
2D\	-cto	.	2d\	-cto	2f#X\	-cto	2a\	-cto
!LO:TX:a:t=P:problem:oznaczenie dynamiczne na pięciolinii przed nutą	!	!LO:DY:b:t=p.:rj	!	!	!	!	!	!
4A\	si-	p	4d\	si-	4f#\	si-	4a\	si-
4A\	-cut	.	4d\	-cut	4f#\	-cut	4a\	-cut
=82	=82	=82	=82	=82	=82	=82	=82	=82
2B\	e-	.	2d\	e-	2g\	e-	2b\	e-
2c\	-rat	.	2cn\	-rat	2a\	-rat	2cc\	-rat
=83	=83	=83	=83	=83	=83	=83	=83	=83
2A\	in	.	2c\	in	2f#X\	in	2a\	in
2B\	prin-	.	2B\	prin-	2g\	prin-	2b\	prin-
!	!	!	!	!	!LO:LB:g=original	!	!	!
=84	=84	=84	=84	=84	=84	=84	=84	=84
2.c\	-ci-	.	2.A\	-ci-	2.a\	-ci-	2.cc\	-ci-
4c\	-pi-	.	4A\	-pi-	4f#X\	-pi-	4cc\	-pi-
=85	=85	=85	=85	=85	=85	=85	=85	=85
2B\	-o,	.	2G/	-o	2g\	-o	2b\	-o
!LO:TX:a:t=P:problem:oznaczenie dynamiczne na pięciolinii przed nutą	!	!LO:DY:b:t=f.:rj	!	!	!	!	!	!
4G\	si-	f	4B\	si-	4d\	si-	4dd\	si-
4G\	-cut	.	4B\	-cut	4d\	-cut	4dd\	-cut
!LO:LB:g=original	!	!	!LO:LB:g=original	!	!	!	!	!
=86	=86	=86	=86	=86	=86	=86	=86	=86
2G\	e-	.	2A\	e-	2e\	e-	2cc\	e-
2Fn\	-rat	.	2A\	-rat	2fn\	-rat	2dd\	-rat
!	!	!	!	!	!	!	!LO:LB:g=original	!
=87	=87	=87	=87	=87	=87	=87	=87	=87
2F\	in	.	2G/	in	2d\	in	2b\	in
2E\	prin-	.	2G/	prin-	2e\	prin-	2cc\	prin-
=88	=88	=88	=88	=88	=88	=88	=88	=88
2.D\	-ci-	.	2.A\	-ci-	2.fn\	-ci-	2.cc\	-ci-
4D\	-pi-	.	4F/	-pi-	4f\	-pi-	4b\	-pi-
=89	=89	=89	=89	=89	=89	=89	=89	=89
2C/	-o	.	2G/	-o	2e\	-o	2cc\	-o
2E\	et	.	2c\	et	2g\	et	2cc\	et
=90	=90	=90	=90	=90	=90	=90	=90	=90
2F\	nunc	.	2A\	nunc	2f\	nunc	2cc\	nunc
2C/	et	.	2G/	et	2e\	et	2cc\	et
=91	=91	=91	=91	=91	=91	=91	=91	=91
2G\	sem-	.	1G	sem-	1d	sem-	(>2cc\	sem-
2GG/	.	.	.	.	.	.	2b\)	.
!	!	!	!	!	!LO:LB:g=original	!	!	!
=92	=92	=92	=92	=92	=92	=92	=92	=92
2C/	-per	.	2G/	-per	2e\	-per	2cc\	-per
4GG/	et	.	4B\	et	4g\	et	4dd\	et
4GG/	in	.	4B\	in	4g\	in	4dd\	in
=93	=93	=93	=93	=93	=93	=93	=93	=93
!LO:SIC:v:l:s=sae-	!	!	!LO:SIC:v:l:s=sae-	!	!LO:SIC:v:l:s=sae-	!	!LO:SIC:v:l:s=sae-	!
2AA/	se-	.	2c\	se-	2f\	se-	2cc\	se-
4BB/	-cu-	.	4B\	-cu-	4g\	-cu-	4dd\	-cu-
4BB/	-la	.	4B\	-la	4g\	-la	4dd\	-la
!LO:LB:g=original	!	!	!	!	!	!	!	!
=94	=94	=94	=94	=94	=94	=94	=94	=94
!LO:SIC:v:l:s=sae-	!	!	!LO:SIC:v:l:s=sae-	!	!LO:SIC:v:l:s=sae-	!	!LO:SIC:v:l:s=sae-	!
4C\	se-	.	4e\	se-	(>4g\	se-	4ee\	se-
4D\	-cu-	.	4B\	-cu-	4f\)	.	4dd\	-cu-
!	!	!	!LO:LB:g=original	!	!	!	!	!
4E\	-lo-	.	4c\	-lo-	(>4e\	-cu-	4cc\	-lo-
4E\	-rum	.	4e\	-rum	4d\)	.	4b\	-rum
!	!	!	!	!	!	!	!LO:LB:g=original	!
=95	=95	=95	=95	=95	=95	=95	=95	=95
(>2F\	a-	.	1f	a-	(>2c\	-lo-	2a\	a-
2D\	.	.	.	.	2d\	.	2b\	.
=96	=96	=96	=96	=96	=96	=96	=96	=96
2C/)	.	.	2e\	-men	2e\)	.	1cc	.
2F\	-men	.	2A\	a-	2f\	-rum	.	.
=97	=97	=97	=97	=97	=97	=97	=97	=97
(>2G\	a-	.	1G	.	1d	A-	2cc\	.
2GG/)	.	.	.	.	.	.	2b\	.
=98	=98	=98	=98	=98	=98	=98	=98	=98
2C/	-men	.	2G/	-men	2e\	-men	2cc\	-men
(>2c\	a-	.	(>2e\	a-	[>2g\	A-	2cc\	a-
=99	=99	=99	=99	=99	=99	=99	=99	=99
2B\)	.	.	2d\)	.	2g\]	.	2dd\	.
2c\	-men	.	2c\	-men	2g\	-men	2ee\	.
!	!	!	!	!	!LO:LB:g=original	!	!	!
=100	=100	=100	=100	=100	=100	=100	=100	=100
(>1A	a-	.	(>2c\	a-	(>2g\	A-	4ee\	.
.	.	.	.	.	.	.	4dd\	.
.	.	.	2A\	.	2f#X\)	.	2cc\	.
=101	=101	=101	=101	=101	=101	=101	=101	=101
2G\)	.	.	2B\)	.	2g\	-men	2dd\	-men
!LO:TX:i:b:t=V&colon; S&colon;	!	!	!	!	!	!	!	!
!LO:TX:a:t=P:problem:napis na pięciolinii za kreską	!	!	!	!	!	!	!	!
2E\	-men	.	2c\	-men	(>2g\	A-	2ee\	a-
!LO:PB:g=original	!	!	!	!	!	!	!	!
=102	=102	=102	=102	=102	=102	=102	=102	=102
2F\	a-	.	2A/	a-	2fn\)	.	2cc\	.
2C/	-men	.	2G/	-men	2e\	-men	2ee\	.
=103	=103	=103	=103	=103	=103	=103	=103	=103
(>1G	a-	.	[>1G	a-	2d\	a-	2b\	.
.	.	.	.	.	2e\	-men	2cc\	.
=104	=104	=104	=104	=104	=104	=104	=104	=104
1GG)	.	.	1G]	.	1d	A-	2cc\	.
.	.	.	.	.	.	.	2b\	.
!	!	!	!LO:LB:g=original	!	!	!	!	!
=105	=105	=105	=105	=105	=105	=105	=105	=105
!	!	!	!	!	!	!	!LO:N:vis=0	!
1C	-men.	.	1G	-men.	1e	-men.	1cc	-men.
==	==	==	==	==	==	==	==	==
*-	*-	*-	*-	*-	*-	*-	*-	*-
!!!system-decoration: [(s1,s2,s3,s4)]
!!!RDF**kern: > = above
!!!RDF**kern: < = below
!!!EED: Mateusz Mrugas
!!!EST: 2021-02-03
!!!AIN: 1 alto 1 bass 2 tenor
!!!ENC: Andrzej Kubiczek
!!!END: 2021-01-28
